dist/images/icons/icon-pawn.svg

<svg width="66" height="65" viewBox="0 0 66 65" fill="none" xmlns="http://www.w3.org/2000/svg">
<g opacity="0.1">
<rect x="0.75" y="0.75" width="64.5" height="63" rx="9.75" fill="#D9D9D9"/>
<rect x="0.75" y="0.75" width="64.5" height="63" rx="9.75" fill="url(#paint0_linear_502_68)"/>
<rect x="0.75" y="0.75" width="64.5" height="63" rx="9.75" stroke="url(#paint1_linear_502_68)" stroke-width="1.5"/>
</g>
<path d="M30.3434 23.4365L30.3434 23.4365C30.2754 23.6306 30.243 23.9508 30.25 24.2813C30.257 24.6115 30.3028 24.9327 30.3794 25.1288L30.3794 25.1288C30.7107 25.9773 31.4289 26.6135 32.2968 26.8291C32.988 27.0008 33.7699 26.9067 34.3544 26.5847C34.5257 26.4903 34.7433 26.3169 34.9454 26.1206C35.1475 25.9243 35.3259 25.713 35.4228 25.547C35.7535 24.9806 35.85 24.2233 35.6737 23.5539C35.4519 22.7114 34.7889 22.0052 33.924 21.6971C33.7556 21.6371 33.474 21.5912 33.184 21.5705C32.8938 21.5498 32.6113 21.5555 32.4414 21.5911L30.3434 23.4365ZM30.3434 23.4365C30.6686 22.5077 31.4821 21.7923 32.4414 21.5911L30.3434 23.4365ZM29.5246 26.9841C29.4837 26.9949 29.4346 27.0068 29.3815 27.0183L29.3815 27.0183C29.2174 27.054 28.951 27.1693 28.7814 27.2758C27.3784 28.1566 27.3778 30.0963 28.7804 30.9768C29.1046 31.1804 29.635 31.33 30.0287 31.33H30.125L30.1057 31.526C29.9885 32.7146 29.8129 33.6022 29.5241 34.4715C29.1696 35.5392 28.4857 36.7976 27.9584 37.3639C27.881 37.447 27.8295 37.4917 27.776 37.5214C27.7229 37.5509 27.661 37.5695 27.5559 37.5881L27.5733 37.6866L27.5558 37.5881C26.1905 37.8303 25.3611 39.2563 25.8576 40.5257L25.8576 40.5258L25.9279 40.7055L25.6638 40.9591C25.2833 41.3247 25.0324 41.7797 24.9452 42.2683L24.9452 42.2683C24.9097 42.4676 24.8933 43.0016 24.9025 43.5681L25.0025 43.5665L24.9025 43.5681C24.9068 43.8309 24.9107 44.0328 24.9194 44.1904C24.9281 44.3473 24.9418 44.4668 24.9679 44.5628C24.9949 44.6621 25.0351 44.7365 25.0947 44.8031C25.1513 44.8664 25.2236 44.9202 25.3062 44.9801L25.3067 44.9804C25.3258 44.9943 25.3508 45.0124 25.3931 45.027C25.4319 45.0403 25.4816 45.0495 25.5527 45.0569C25.6948 45.0716 25.947 45.0811 26.4236 45.0874C27.3794 45.1 29.2543 45.1 33 45.1C36.7457 45.1 38.6206 45.1 39.5764 45.0874C40.053 45.0811 40.3051 45.0716 40.4473 45.0569C40.5184 45.0495 40.5681 45.0403 40.6069 45.027C40.6492 45.0124 40.6742 44.9943 40.6933 44.9804L40.6938 44.9801C40.7764 44.9202 40.8487 44.8664 40.9053 44.8031C40.9649 44.7365 41.0051 44.6621 41.0321 44.5628C41.0582 44.4668 41.0719 44.3473 41.0806 44.1904C41.0893 44.0328 41.0932 43.8309 41.0975 43.5681C41.1067 43.0016 41.0903 42.4676 41.0548 42.2683C40.9673 41.778 40.7167 41.3247 40.3332 40.9563L40.0668 40.7003L40.1392 40.5218C40.6473 39.2696 39.8079 37.83 38.4442 37.5881C38.339 37.5695 38.2771 37.5509 38.224 37.5214C38.1705 37.4917 38.119 37.447 38.0416 37.3639C37.5146 36.7978 36.8293 35.5371 36.4779 34.476L36.383 34.5074L36.4779 34.476C36.1766 33.5662 36.0172 32.7617 35.8945 31.5259C35.8945 31.5259 35.8945 31.5259 35.8945 31.5259L35.8751 31.33H35.9713C36.365 31.33 36.8954 31.1804 37.2196 30.9768C38.6222 30.0963 38.6216 28.1566 37.2186 27.2758C37.049 27.1693 36.7826 27.054 36.6185 27.0183L36.6185 27.0183C36.5667 27.0071 36.5186 26.9958 36.478 26.9856C36.4803 26.9823 36.4826 26.9788 36.485 26.9753C36.533 26.9042 36.5994 26.8078 36.6726 26.7034L36.6726 26.7034C36.9787 26.2667 37.2315 25.7162 37.3607 25.205L37.2637 25.1805L37.3607 25.205C37.4208 24.9668 37.4494 24.5973 37.4494 24.235C37.4494 23.8726 37.4208 23.5031 37.3607 23.265L37.2637 23.2895L37.3607 23.265C36.9552 21.6599 35.7114 20.4277 34.0916 20.0251C33.8561 19.9666 33.5324 19.9268 33.2152 19.9097C32.8985 19.8925 32.58 19.8974 32.3556 19.9313C30.5703 20.2012 29.14 21.4505 28.6675 23.1566L28.7639 23.1833L28.6675 23.1566C28.5784 23.4783 28.5555 23.7088 28.5555 24.235C28.5555 24.7612 28.5784 24.9916 28.6675 25.3134C28.8058 25.8128 29.0697 26.3594 29.3705 26.7689L29.5246 26.9841ZM29.692 28.6726L29.692 28.6726C29.7442 28.6417 29.7873 28.6167 30.2256 28.6043C30.6587 28.5919 31.4576 28.5911 33 28.5911C34.5424 28.5911 35.3413 28.5919 35.7744 28.6043C36.2127 28.6167 36.2558 28.6417 36.308 28.6726L36.308 28.6726C36.5579 28.8206 36.644 29.1257 36.5099 29.3777L36.5099 29.3778C36.4947 29.4063 36.4643 29.4458 36.4246 29.4859C36.3854 29.5256 36.343 29.5599 36.308 29.5806L36.308 29.5806C36.2557 29.6116 36.2126 29.6365 35.7757 29.649C35.3438 29.6614 34.5474 29.6623 33.0101 29.6623C32.8929 29.6623 32.7798 29.6624 32.6706 29.6624C31.1376 29.6626 30.379 29.6628 29.9808 29.6286C29.7657 29.6101 29.6746 29.5826 29.6256 29.5522C29.5856 29.5275 29.5684 29.4997 29.528 29.4345C29.5217 29.4244 29.5148 29.4133 29.5073 29.4013L29.5072 29.4012C29.351 29.1523 29.4309 28.8273 29.692 28.6726ZM27.6777 39.2875L27.6777 39.2875L27.6778 39.2874C27.7025 39.2728 27.7264 39.2586 27.8296 39.2466C27.9381 39.2339 28.1235 39.2249 28.4676 39.2187C29.1538 39.2065 30.454 39.2058 32.9899 39.2058C33.3066 39.2058 33.6048 39.2057 33.8854 39.2056C36.152 39.2051 37.2807 39.2049 37.862 39.2368C38.1937 39.255 38.3276 39.2835 38.3918 39.3165C38.4309 39.3365 38.44 39.3525 38.4664 39.3986C38.4765 39.4163 38.4892 39.4384 38.5071 39.4669L38.5071 39.4669C38.6121 39.634 38.6121 39.8489 38.5071 40.0161L38.5071 40.0161C38.4892 40.0445 38.4766 40.0666 38.4665 40.0843C38.44 40.1304 38.4308 40.1464 38.3918 40.1665C38.3276 40.1995 38.194 40.2279 37.8629 40.2462C37.2824 40.2782 36.1552 40.2779 33.8915 40.2775C33.612 40.2775 33.3152 40.2774 33 40.2774C32.6848 40.2774 32.388 40.2775 32.1085 40.2775C29.8448 40.2779 28.7176 40.2782 28.1371 40.2462C27.806 40.2279 27.6724 40.1995 27.6082 40.1665C27.5692 40.1464 27.56 40.1304 27.5335 40.0843C27.5234 40.0666 27.5108 40.0445 27.4929 40.0161L27.4929 40.0161C27.3366 39.7672 27.4166 39.4421 27.6777 39.2875ZM39.3954 43.0068L39.3961 43.457H33H26.6039L26.6046 43.0068C26.605 42.7654 26.609 42.6293 26.6238 42.533C26.6376 42.4433 26.6605 42.3889 26.7053 42.312C26.7597 42.2188 26.8843 42.0976 26.981 42.0444C26.9811 42.0444 26.9811 42.0444 26.9811 42.0444L27.159 41.9465H33H38.841L39.0189 42.0444C39.0189 42.0444 39.0189 42.0444 39.019 42.0444C39.1157 42.0976 39.2403 42.2188 39.2946 42.312C39.3395 42.3889 39.3624 42.4433 39.3762 42.533C39.391 42.6293 39.395 42.7654 39.3954 43.0068ZM35.9024 37.2664L35.9876 37.2141L35.9024 37.2665C35.9619 37.3634 36.0163 37.4539 36.0575 37.5241C36.0306 37.5246 36.0004 37.5251 35.9671 37.5256C35.8039 37.528 35.5675 37.5302 35.2756 37.5321C34.6917 37.5358 33.8862 37.5381 33 37.5381C32.1138 37.5381 31.3083 37.5358 30.7244 37.5321C30.4325 37.5302 30.1961 37.528 30.0329 37.5256C29.9995 37.5251 29.9693 37.5246 29.9423 37.5241C29.9833 37.4538 30.0376 37.3633 30.0969 37.2663L30.0116 37.2141L30.0969 37.2663C31.0105 35.774 31.6516 33.6653 31.7723 31.7622L31.7997 31.33H32.9999H34.2001L34.2269 31.7547C34.3473 33.6657 34.9886 35.7781 35.9024 37.2664ZM27.4082 40.0693C27.4372 40.1154 27.4552 40.1547 27.4808 40.188C27.637 40.3914 28.0763 40.3774 33 40.3774C37.9237 40.3774 38.363 40.3914 38.5192 40.188C38.5448 40.1547 38.5628 40.1154 38.5918 40.0693H27.4082Z" fill="#BAE9F1" stroke="#BAE9F1" stroke-width="0.2"/>
<defs>
<linearGradient id="paint0_linear_502_68" x1="33" y1="0" x2="52.1042" y2="87.4143" gradientUnits="userSpaceOnUse">
<stop stop-color="#2C4262"/>
<stop offset="1" stop-color="#202F45"/>
</linearGradient>
<linearGradient id="paint1_linear_502_68" x1="33" y1="0" x2="33" y2="64.5" gradientUnits="userSpaceOnUse">
<stop stop-color="white"/>
<stop offset="1" stop-color="white" stop-opacity="0"/>
</linearGradient>
</defs>
</svg>

<svg width="66" height="65" fill="none" xmlns="http://www.w3.org/2000/svg"><g opacity=".1"><rect x=".75" y=".75" width="64.5" height="63" rx="9.75" fill="#D9D9D9"/><rect x=".75" y=".75" width="64.5" height="63" rx="9.75" fill="url(#paint0_linear_502_68)"/><rect x=".75" y=".75" width="64.5" height="63" rx="9.75" stroke="url(#paint1_linear_502_68)" stroke-width="1.5"/></g><path d="M30.343 23.436h0c-.068.195-.1.515-.093.845.007.33.053.652.13.848h0a2.794 2.794 0 001.917 1.7c.691.172 1.473.078 2.057-.244.172-.095.39-.268.591-.464.203-.197.38-.408.478-.574.33-.566.427-1.324.25-1.993-.221-.843-.884-1.549-1.749-1.857a3.142 3.142 0 00-.74-.127c-.29-.02-.573-.015-.743.021l-2.098 1.845zm0 0a2.877 2.877 0 012.098-1.845l-2.098 1.845zm-.818 3.548c-.041.01-.09.023-.143.034h0a2.243 2.243 0 00-.6.258c-1.404.88-1.404 2.82-.002 3.7.325.204.855.354 1.249.354h.096l-.02.196c-.117 1.189-.292 2.076-.58 2.945-.355 1.068-1.04 2.327-1.567 2.893a.764.764 0 01-.182.157.68.68 0 01-.22.067l.017.099-.017-.099c-1.366.242-2.195 1.668-1.698 2.938h0l.07.18-.264.253a2.41 2.41 0 00-.719 1.31h0c-.035.199-.052.733-.043 1.3l.1-.003-.1.002c.005.263.009.465.017.622.01.157.023.277.049.373.027.1.067.173.127.24.056.063.129.117.211.177h0c.02.014.045.032.087.047a.735.735 0 00.16.03c.142.015.394.024.87.03.956.013 2.831.013 6.577.013s5.62 0 6.576-.013c.477-.006.73-.015.871-.03a.735.735 0 00.16-.03.303.303 0 00.086-.047h0c.083-.06.156-.114.212-.177.06-.066.1-.14.127-.24.026-.096.04-.216.049-.373.008-.157.012-.36.016-.622.01-.566-.007-1.1-.042-1.3a2.408 2.408 0 00-.722-1.312l-.266-.256.072-.178c.508-1.252-.331-2.692-1.695-2.934a.68.68 0 01-.22-.067.764.764 0 01-.182-.157c-.527-.566-1.213-1.827-1.564-2.888l-.095.031.095-.031c-.301-.91-.46-1.714-.584-2.95 0 0 0 0 0 0l-.019-.196h.096c.394 0 .924-.15 1.249-.353 1.402-.88 1.402-2.82-.001-3.701a2.269 2.269 0 00-.6-.258h0a4.418 4.418 0 01-.141-.032l.007-.01c.048-.072.114-.168.188-.273h0a4.76 4.76 0 00.688-1.498l-.097-.024.097.024c.06-.238.088-.608.088-.97s-.028-.732-.088-.97l-.097.024.097-.024a4.453 4.453 0 00-3.27-3.24 5.026 5.026 0 00-.876-.115 4.596 4.596 0 00-.86.021c-1.785.27-3.215 1.52-3.687 3.226l.096.026-.096-.026c-.09.321-.113.552-.113 1.078s.023.757.113 1.078c.138.5.402 1.046.703 1.456l.154.215zm.167 1.689h0c.052-.031.095-.056.534-.069A132.1 132.1 0 0133 28.591c1.542 0 2.341 0 2.774.013.439.013.482.038.534.069h0c.25.148.336.453.202.705h0a.62.62 0 01-.202.203h0c-.052.03-.095.056-.532.068-.432.012-1.229.013-2.766.013h-.34c-1.532 0-2.291 0-2.69-.033-.214-.019-.305-.046-.354-.077-.04-.024-.058-.052-.098-.117l-.02-.034h0a.52.52 0 01.184-.728zm-2.014 10.615h0c.024-.015.048-.03.152-.041.108-.013.294-.022.638-.028.686-.013 1.986-.013 4.522-.013h.895c2.267 0 3.396-.001 3.977.03.332.019.466.047.53.08.039.02.048.036.074.083l.041.068h0a.518.518 0 010 .55h0c-.018.027-.03.05-.04.067-.027.046-.036.062-.075.082-.064.034-.198.062-.53.08-.58.032-1.707.032-3.97.032h-1.784c-2.263 0-3.39 0-3.97-.032-.332-.018-.466-.047-.53-.08-.039-.02-.048-.036-.075-.082-.01-.017-.022-.04-.04-.068h0a.52.52 0 01.185-.728zm11.717 3.719l.001.45H26.604v-.45c.001-.242.005-.378.02-.474a.558.558 0 01.081-.221.857.857 0 01.276-.268s0 0 0 0l.178-.097h11.682l.178.097s0 0 0 0a.856.856 0 01.276.268.557.557 0 01.081.221c.015.096.019.232.02.474zm-3.493-5.74l.086-.053-.086.053c.06.096.114.187.155.257l-.09.002-.691.006a380.027 380.027 0 01-5.334-.008l.155-.258-.085-.052.085.052c.913-1.492 1.555-3.6 1.675-5.504l.028-.432h2.4l.027.425c.12 1.91.762 4.023 1.675 5.511zm-8.494 2.802c.03.046.047.086.073.119.156.203.595.19 5.519.19s5.363.013 5.52-.19c.025-.033.043-.073.072-.119H27.408z" fill="#BAE9F1" stroke="#BAE9F1" stroke-width=".2"/><defs><linearGradient id="paint0_linear_502_68" x1="33" y1="0" x2="52.104" y2="87.414" gradientUnits="userSpaceOnUse"><stop stop-color="#2C4262"/><stop offset="1" stop-color="#202F45"/></linearGradient><linearGradient id="paint1_linear_502_68" x1="33" y1="0" x2="33" y2="64.5" gradientUnits="userSpaceOnUse"><stop stop-color="#fff"/><stop offset="1" stop-color="#fff" stop-opacity="0"/></linearGradient></defs></svg>
